X:1
T:Palmetto -- Hornpipe
R:hornpipe
B:Cole's 1000 Fiddle Tunes
M:C|
L:1/8
K:A
((3uEFG)|A>GA>B A>ce>c|B>^AB>c B>Fd>c|\
B>cd>e f>ga>f|e>ag>f (3.e.f.e (3.d.c.B|
A>GA>B A>ce>c|{c}B>^AB>c B>Fd>c|\
B>cd>e f>ga>f|(3.e.f.e (3.d.c.B A2:|
|:uc2|B>"4"e^d>e B>g^^f>g|e>Be>g b2a>g|\
f>ga>f ^d>Bc>^d|(3.e.g.f (3.e.d.c B2G>A|
B>"4"e^d>e B>g^^f>g|e>Be>g b2a>g|\
f>ga>f ^d>Bc>d|e2g2e2:|
